svg/spot_light.svg

<?xml version="1.0" encoding="UTF-8" standalone="no"?>
<svg
   xmlns:dc="http://purl.org/dc/elements/1.1/"
   xmlns:cc="http://creativecommons.org/ns#"
   xmlns:rdf="http://www.w3.org/1999/02/22-rdf-syntax-ns#"
   xmlns:svg="http://www.w3.org/2000/svg"
   xmlns="http://www.w3.org/2000/svg"
   xmlns:sodipodi="http://sodipodi.sourceforge.net/DTD/sodipodi-0.dtd"
   xmlns:inkscape="http://www.inkscape.org/namespaces/inkscape"
   width="24"
   height="24"
   viewBox="0 0 24 24"
   version="1.1"
   id="svg8"
   inkscape:version="1.0.2 (e86c870, 2021-01-15)"
   sodipodi:docname="spot_light.svg">
  <defs
     id="defs2">
    <inkscape:path-effect
       effect="fillet_chamfer"
       id="path-effect870"
       is_visible="true"
       lpeversion="1"
       satellites_param="F,0,0,1,0,2,0,1 @ F,0,0,1,0,2,0,1 @ F,0,0,1,0,2,0,1 @ F,0,0,1,0,2,0,1"
       unit="px"
       method="auto"
       mode="F"
       radius="2"
       chamfer_steps="1"
       flexible="false"
       use_knot_distance="true"
       apply_no_radius="true"
       apply_with_radius="true"
       only_selected="false"
       hide_knots="false" />
    <inkscape:path-effect
       effect="fillet_chamfer"
       id="path-effect868"
       is_visible="true"
       lpeversion="1"
       satellites_param="F,0,0,1,0,2,0,1 @ F,0,0,1,0,2,0,1 @ F,0,0,1,0,2,0,1 @ F,0,0,1,0,2,0,1"
       unit="px"
       method="auto"
       mode="F"
       radius="2"
       chamfer_steps="1"
       flexible="false"
       use_knot_distance="true"
       apply_no_radius="true"
       apply_with_radius="true"
       only_selected="false"
       hide_knots="false" />
    <inkscape:path-effect
       effect="fillet_chamfer"
       id="path-effect887"
       is_visible="true"
       lpeversion="1"
       satellites_param="F,0,0,1,0,1,0,1 @ F,0,0,1,0,1,0,1 @ F,0,0,1,0,1,0,1 @ F,0,0,1,0,1,0,1"
       unit="px"
       method="auto"
       mode="F"
       radius="1"
       chamfer_steps="1"
       flexible="false"
       use_knot_distance="true"
       apply_no_radius="true"
       apply_with_radius="true"
       only_selected="false"
       hide_knots="false" />
    <inkscape:path-effect
       effect="fillet_chamfer"
       id="path-effect863"
       is_visible="true"
       lpeversion="1"
       satellites_param="F,0,0,1,0,2,0,1 @ F,0,0,1,0,2,0,1 @ F,0,0,1,0,2,0,1 @ F,0,0,1,0,2,0,1"
       unit="px"
       method="auto"
       mode="F"
       radius="2"
       chamfer_steps="1"
       flexible="false"
       use_knot_distance="true"
       apply_no_radius="true"
       apply_with_radius="true"
       only_selected="false"
       hide_knots="false" />
    <clipPath
       clipPathUnits="userSpaceOnUse"
       id="clipPath857">
      <rect
         style="opacity:1;fill:none;stroke:#000000;stroke-width:2;stroke-linejoin:round;stroke-miterlimit:4;stroke-dasharray:none;stroke-opacity:1;paint-order:normal"
         id="rect859"
         width="20"
         height="6.9768162"
         x="1.3686546"
         y="9.7222681" />
    </clipPath>
  </defs>
  <sodipodi:namedview
     id="base"
     pagecolor="#ffffff"
     bordercolor="#666666"
     borderopacity="1.0"
     inkscape:pageopacity="0.0"
     inkscape:pageshadow="2"
     inkscape:zoom="31.678384"
     inkscape:cx="10.486843"
     inkscape:cy="10.965077"
     inkscape:document-units="px"
     inkscape:current-layer="layer1"
     inkscape:document-rotation="0"
     showgrid="true"
     inkscape:pagecheckerboard="true"
     units="px"
     inkscape:window-width="1920"
     inkscape:window-height="1001"
     inkscape:window-x="-9"
     inkscape:window-y="1063"
     inkscape:window-maximized="1"
     showguides="true"
     inkscape:lockguides="true"
     inkscape:guide-bbox="true"
     objecttolerance="20"
     guidetolerance="2.1"
     gridtolerance="10000">
    <inkscape:grid
       type="xygrid"
       id="grid833"
       snapvisiblegridlinesonly="false"
       dotted="true"
       spacingx="2"
       spacingy="2" />
    <sodipodi:guide
       position="2,20.590735"
       orientation="-1,0"
       id="guide845"
       inkscape:label=""
       inkscape:locked="true"
       inkscape:color="rgb(0,0,255)" />
    <sodipodi:guide
       position="22,11.467795"
       orientation="-1,0"
       id="guide847"
       inkscape:label=""
       inkscape:locked="true"
       inkscape:color="rgb(0,0,255)" />
    <sodipodi:guide
       position="4.73509,22"
       orientation="0,1"
       id="guide849"
       inkscape:label=""
       inkscape:locked="true"
       inkscape:color="rgb(0,0,255)" />
    <sodipodi:guide
       position="8.0812203,2"
       orientation="0,1"
       id="guide851"
       inkscape:label=""
       inkscape:locked="true"
       inkscape:color="rgb(0,0,255)" />
    <sodipodi:guide
       position="0.82074894,21"
       orientation="0,1"
       id="guide865"
       inkscape:label=""
       inkscape:locked="true"
       inkscape:color="rgb(0,0,255)" />
    <sodipodi:guide
       position="2.8726213,3"
       orientation="0,1"
       id="guide867"
       inkscape:label=""
       inkscape:locked="true"
       inkscape:color="rgb(0,0,255)" />
    <sodipodi:guide
       position="3,17.970652"
       orientation="-1,0"
       id="guide869"
       inkscape:label=""
       inkscape:locked="true"
       inkscape:color="rgb(0,0,255)" />
    <sodipodi:guide
       position="21,17.497143"
       orientation="-1,0"
       id="guide871"
       inkscape:label=""
       inkscape:locked="true"
       inkscape:color="rgb(0,0,255)" />
    <sodipodi:guide
       position="8.2706239,20"
       orientation="0,1"
       id="guide873"
       inkscape:label=""
       inkscape:locked="true"
       inkscape:color="rgb(0,0,255)" />
    <sodipodi:guide
       position="11.427351,4"
       orientation="0,1"
       id="guide875"
       inkscape:label=""
       inkscape:locked="true"
       inkscape:color="rgb(0,0,255)" />
    <sodipodi:guide
       position="4,17.560278"
       orientation="-1,0"
       id="guide877"
       inkscape:label=""
       inkscape:locked="true"
       inkscape:color="rgb(0,0,255)" />
    <sodipodi:guide
       position="20,15.666242"
       orientation="-1,0"
       id="guide879"
       inkscape:label=""
       inkscape:locked="true"
       inkscape:color="rgb(0,0,255)" />
    <inkscape:grid
       type="xygrid"
       id="grid881" />
  </sodipodi:namedview>
  <metadata
     id="metadata5">
    <rdf:RDF>
      <cc:Work
         rdf:about="">
        <dc:format>image/svg+xml</dc:format>
        <dc:type
           rdf:resource="http://purl.org/dc/dcmitype/StillImage" />
        <dc:title></dc:title>
      </cc:Work>
    </rdf:RDF>
  </metadata>
  <g
     inkscape:label="Layer 1"
     inkscape:groupmode="layer"
     id="layer1">
    <path
       id="rect864"
       style="fill:none;fill-opacity:1;stroke:none;stroke-width:2;stroke-opacity:1"
       d="M 8.9511719 4 A 2 2 0 0 0 7 6 L 7 8 A 2 2 0 0 0 9 10 L 13.75 10 L 9.1171875 12.470703 A 2 2 0 0 0 8.2949219 15.175781 L 9.234375 16.941406 A 2 2 0 0 0 11.941406 17.765625 L 17.234375 14.941406 A 2 2 0 0 0 18.058594 12.234375 L 17.117188 10.470703 A 2 2 0 0 0 16.199219 9.5996094 A 2 2 0 0 0 17 8 L 17 6 A 2 2 0 0 0 15 4 L 9 4 A 2 2 0 0 0 8.9511719 4 z " />
  </g>
</svg>

<?xml version="1.0" encoding="UTF-8"?>
<svg width="24" height="24" version="1.1" viewBox="0 0 24 24" xmlns="http://www.w3.org/2000/svg">
 <path d="m8.9512 4a2 2 0 0 0-1.9512 2v2a2 2 0 0 0 2 2h4.75l-4.6328 2.4707a2 2 0 0 0-0.82227 2.7051l0.93945 1.7656a2 2 0 0 0 2.707 0.82422l5.293-2.8242a2 2 0 0 0 0.82422-2.707l-0.94141-1.7637a2 2 0 0 0-0.91797-0.87109 2 2 0 0 0 0.80078-1.5996v-2a2 2 0 0 0-2-2h-6a2 2 0 0 0-0.048828 0z"/>
</svg>
